icon-themes/sifr_svg/cmd/sc_symbolshapes.bracket-pair.svg

<svg viewBox="0 0 16 16" xmlns="http://www.w3.org/2000/svg"><path d="m5 1c-1.656854 0-3 1.3431458-3 3v8c0 1.656854 1.343146 3 3 3h1v-2h-1c-.552285 0-1-.447715-1-1v-8c0-.5522847.447715-1 1-1h1v-2zm5 0v2h1c.552285 0 1 .4477153 1 1v8c0 .552285-.447715 1-1 1h-1v2h1c1.656854 0 3-1.343146 3-3v-8c0-1.6568542-1.343146-3-3-3z" fill="#555753"/></svg>

<svg xmlns="http://www.w3.org/2000/svg" viewBox="0 0 16 16">
  <path
     style="fill:#555753"
     d="M 5 1 C 3.343146 1 2 2.3431458 2 4 L 2 12 C 2 13.656854 3.343146 15 5 15 L 6 15 L 6 13 L 5 13 C 4.447715 13 4 12.552285 4 12 L 4 4 C 4 3.4477153 4.447715 3 5 3 L 6 3 L 6 1 L 5 1 z M 10 1 L 10 3 L 11 3 C 11.552285 3 12 3.4477153 12 4 L 12 12 C 12 12.552285 11.552285 13 11 13 L 10 13 L 10 15 L 11 15 C 12.656854 15 14 13.656854 14 12 L 14 4 C 14 2.3431458 12.656854 1 11 1 L 10 1 z "
     />
</svg>
